X: 28
T:O'Donnell's Rock
M:4/4
L:1/8
Q:120     %Tempo
C:Joe Liddy
K:D
de |:fafd egfe |de (3fed BAFA |1B2 (3cBA
 BA FE |
FBcA Bcde :|2Bcde fafe |(3dcB (3cBA B2 d
e |:f2 ba bafe |
dfce BAFA |B2 (3cBA Bcdf |afed e2 de |1fbaf eafe |
B2 cA BAFA |defe fbfe |(3dcB cA B2 de :|2f2 (3baf e2 (3fed |
B2 (3fed e2 de |(3fga ba (3faf ef |(3dcB cA B2 z2 ||
%  ABC2Win Version 2.1 24/06/2002
